teams/dark/144.svg

<svg xmlns="http://www.w3.org/2000/svg" viewBox="0 0 300 300"><title>Atlanta Braves cap on dark logo</title><path fill="#fff" d="M176.7 180.69c-20.7 3.81-32.04 3.6-49.59 8.49-15.05 31.22-31.17 58.32-54.2 58.63-30.4.42-41.53-23.95-37.25-38.5 3.16-10.72 6-10.4 6-4.42 0 3.24 8.53 21.88 29.97 20.82 10.74-.51 19.54-10.99 28.64-26.8-5.63 2.42-11.82 5.16-18.86 8.52-4.98 2.38-5.36 1.56-4.41-2.54.7-3.01 8.03-20.74 35.99-30.23 21.06-42.19 48.41-99.67 104.43-128.83 2.81-1.47 13.12-8.95 5.38 3.79-25.88 42.56-33.62 79.77-32.38 109.03 20.61-7.48 31.79-18.43 33.64-34.57.74-6.33 2.48-6.42 6-2.51 4.12 4.57 12.88 40.13-37.57 55.38 6.27 33.69 24.6 52.57 34.41 50.99 10.18-1.68 17.99-12.62 16.41-28.09-.92-9 2.47-5.64 5.67-2.51 9.49 9.14 8.69 38.56-10.08 46.7-27.09 11.72-52.73-16.09-62.21-63.34Zm-40.42-11.06c.25-.04.46-.04.7-.07 14.15-1.53 26.38-3.44 37.13-6-1.89-17.55-1.75-37.06 1.06-57.76-15.07 13.3-27.04 38.38-38.89 63.83m101.5 8.82v6.62h-1.6v-6.62h-2.35v-1.42h6.3v1.42Zm11.43 6.62v-6.41h-.04l-2.26 6.41h-1.54l-2.18-6.41h-.03v6.41h-1.59v-8.05h2.75l1.81 5.24h.05l1.9-5.24h2.72v8.05Z"/></svg>

<svg width="300" height="300" viewBox="0 0 300 300" fill="none" xmlns="http://www.w3.org/2000/svg">
<path d="M176.7 180.69C156 184.5 144.66 184.29 127.11 189.18C112.06 220.4 95.94 247.5 72.91 247.81C42.51 248.23 31.38 223.86 35.66 209.31C38.82 198.59 41.66 198.91 41.66 204.89C41.66 208.13 50.19 226.77 71.63 225.71C82.37 225.2 91.17 214.72 100.27 198.91C94.64 201.33 88.45 204.07 81.41 207.43C76.43 209.81 76.05 208.99 77 204.89C77.7 201.88 85.03 184.15 112.99 174.66C134.05 132.47 161.4 74.99 217.42 45.83C220.23 44.36 230.54 36.88 222.8 49.62C196.92 92.18 189.18 129.39 190.42 158.65C211.03 151.17 222.21 140.22 224.06 124.08C224.8 117.75 226.54 117.66 230.06 121.57C234.18 126.14 242.94 161.7 192.49 176.95C198.76 210.64 217.09 229.52 226.9 227.94C237.08 226.26 244.89 215.32 243.31 199.85C242.39 190.85 245.78 194.21 248.98 197.34C258.47 206.48 257.67 235.9 238.9 244.04C211.81 255.76 186.17 227.95 176.69 180.7L176.7 180.69ZM136.28 169.63C136.53 169.59 136.74 169.59 136.98 169.56C151.13 168.03 163.36 166.12 174.11 163.56C172.22 146.01 172.36 126.5 175.17 105.8C160.1 119.1 148.13 144.18 136.28 169.63Z" fill="white"/>
</svg>
